X:940
T: Anne Derrane's (with piano acc.)
C: BB
L: 1/8
M: 4/4
R: reel
Q: 1/4=175
V: 1 program 1 21
V: 2 bass volume = 70 program 1 01 m=D
K: G
[V:1] ef|"G"g2 fg "Em" edBe|"G"dedB "Am"AGEC|"G"B,DGA "Em"BedB|"Am"AGEG "D"Adef|
[V:2] z2|G,,2[G2D2B2]E,2[E2G2B2]|G,,2[G2D2B2]A,,2[A2C2E2]|G,,2[G2D2B2]E,2[E2G2B2]|\
A,,2[A2C2E2]D,2[A2D2F2]|
%
[V:1] "G"g2 fg "Em" edBe|"G"dedB "Am"AGEC|"G"B,DGF "Am"EAcA|"D"FGAF "G"G2 :|
[V:2] G,,2[G2D2B2]E,2[E2G2B2]|G,,2[G2D2B2]A,,2[A2C2E2]|G,,2[G2D2B2]A,,2[A2C2E2]|\
D,2[A2D2F2][G,,2D,2B,2]:|
%
[V:1] ef|"G"gd ~d2 "D"ad ~d2|"Em"bgeg "G"dB ~B2|"Am"cBAc "G"Bdgb|"A"age^c "D"d2 ef|
[V:2] z2|G,,2[G2D2B2]D,2[A2D2F2]|E,2[E2G2B2]G,,2[G2D2B2]|A,,2[A2C2E2]G,,2[G2D2B2]|\
A,,2[A2^C2E2]D,2[A2D2F2]|
%
[V:1] "G"gd ~d2 "D"ad ~d2|"Em"bgeg "G"dB ~B2|"Am"cBAG "D"FGAc|"G"BG "D"AF "G"G2 :|
[V:2] G,,2[G2D2B2]D,2[A2D2F2]|E,2[E2G2B2]G,,2[G2D2B2]|A,,2[A2C2E2]D,2[A2D2F2]|[G,,2D,2B,2][D,,2A,,2F,2][G,,2D,2B,2]:|
%%%%%%%%%%%%%%%%%%%%%%%%%
